X: 319
%
U:~=!turn!
T: Lady Muir Mackenzie
C:Wm. Gow
O:Scotland
B:Keith Norman MacDonald : "The Skye collection of the best reels & strathspeys extant" : 1887
Z:Ralph Palmer
R:Reel
M:C|
L:1/8
K:C
E | C<cc>G ECC_E | D<_BB>F DB,B,D | C<cc>G E>FG>f | ecde c/c/c c:|
e | gece gage | fd_Bd fgfd | gece gage | fdge c/c/c ~c>e |
gece gage | fd_Bd (fg)fd | cedf egfa | gefd c/c/c c|]


